X: 1
M: 4/4
K: C
|: "Cadd9" CG de -ed CG | "Caug(add2)" C^G de -ed C^G | "Fmaj7" FA ce -ec FA | "Cadd9" CG de -ed CG |
| "Bb" _B,_B df -fd _B,_B | "Ab" _A,c _ea -a_e _A,c | "Cadd9" CG de -ed CG :|
